X:44
%%score 1 2
%%pagewidth 9in
%%vocalfont Baskerville10Pro 16
T:I am the Duke of Norfolk
M:2/4
L:1/8
K:Bb
V:1 clef-treble
V:2 clef-bass octave=-1
V:1
B|[GB]>AGA|B2 [D(B]c/B/)|[FA]FFF|[CF]2 FF|
w:I am the Duke of Nor folk,** New-ly come to Suf-folk, Say
V:2
z|d>cBc & G4-|d2B2 & G2G2|c4- & F4-|c2A2 & F2F2|
V:1
GGGA & E4|(Bc/B/) AG|[^Fd]2[Fd]2|[^Fd]3c|BB[GB][Ac] & [DG]2E2|[DBd]2 cB & x2F2|
w:shall I be at-tend** ed, or no, no, no? Good Duke be not of-fended,* And
V:2
[EB]4|[EGB]2[EGc]2|[DAd]2[DAd]2|[DAd]4|G2=F2|B,2D2|
V:1
cccc & [FA]2[=EG]2|[FAc]2(cB/c/) & x2G2|ddcB & G4|[^FA][=EG]([FA][Ac])|[GB]2[DG]2|[DG]3||
w:you shall be at-tend-ed, And* you shall be at-tend-*ed,* now, now, now.
V:2
F2C2|F,2[_Ec]2|B2AG & D4|[Dd]4|[Gd]2[GB]2|[GB]3||

